; generated by Slic3r 1.3.1-dev on 2019-03-27 at 10:55:10

; external perimeters extrusion width = 0.44mm (3.92mm^3/s)
; perimeters extrusion width = 0.55mm (5.03mm^3/s)
; infill extrusion width = 0.50mm (6.79mm^3/s)
; solid infill extrusion width = 0.55mm (7.54mm^3/s)
; top infill extrusion width = 0.55mm (6.28mm^3/s)

;
;
;
M107 ; turn off fan
M190 S56 ; set bed temperature
M109 S202 ; wait for temperature to be reached

G28 X0 Y0
G28 Z0

G21 ; set units to millimeters
G90 ; use absolute coordinates
M82 ; use absolute distances for extrusion
G1 Z3 F1000

; Filament gcode

G21 ; set units to millimeters
G90 ; use absolute coordinates
M82 ; use absolute distances for extrusion
G92 E0
M117 0
G1 E-1.50000 F1800.00000
G92 E0
G1 Z0.200 F6000.000
G1 Z0.300 F6000.000
M117 0
G1 Z0.500 F6000.000
G1 X6.990 Y65.438 F6000.000
G1 Z0.300 F6000.000
G1 E1.50000 F1800.00000
G1 F1440
G1 X74.999 Y41.438 E4.85339
G1 X76.609 Y41.162 E4.92934
G1 X90.891 Y41.162 E5.59346
G1 X92.796 Y41.553 E5.68388
G1 X144.155 Y63.553 E8.28183
G1 X145.761 Y64.672 E8.37283
G1 X146.792 Y66.335 E8.46383
G1 X147.088 Y68.000 E8.54246
G1 X147.088 Y82.000 E9.19343
G1 X146.692 Y83.917 E9.28443
G1 X145.569 Y85.520 E9.37543
G1 X144.155 Y86.447 E9.45407
G1 X92.796 Y108.447 E12.05201
G1 X90.891 Y108.838 E12.14243
G1 X76.609 Y108.838 E12.80655
G1 X74.999 Y108.562 E12.88250
G1 X6.990 Y84.562 E16.23589
G1 X5.314 Y83.551 E16.32689
G1 X4.176 Y81.959 E16.41789
G1 X3.762 Y80.000 E16.51098
G1 X3.762 Y70.000 E16.97596
G1 X4.158 Y68.083 E17.06696
G1 X5.281 Y66.480 E17.15796
G1 X6.939 Y65.469 E17.24826
G1 X7.129 Y65.833 F6000.000
G1 F1440
G1 X75.138 Y41.833 E20.60165
G1 X76.609 Y41.581 E20.67102
G1 X90.891 Y41.581 E21.33515
G1 X92.631 Y41.938 E21.41774
G1 X143.990 Y63.938 E24.01568
G1 X145.514 Y65.021 E24.10261
G1 X146.454 Y66.637 E24.18954
G1 X146.669 Y68.000 E24.25369
G1 X146.669 Y82.000 E24.90466
G1 X146.273 Y83.827 E24.99159
G1 X145.158 Y85.327 E25.07852
G1 X143.990 Y86.062 E25.14267
G1 X92.631 Y108.062 E27.74061
G1 X90.891 Y108.419 E27.82320
G1 X76.609 Y108.419 E28.48732
G1 X75.138 Y108.167 E28.55669
G1 X7.129 Y84.167 E31.91009
G1 X5.538 Y83.186 E31.99702
G1 X4.495 Y81.635 E32.08394
G1 X4.181 Y80.000 E32.16134
G1 X4.181 Y70.000 E32.62632
G1 X4.577 Y68.173 E32.71325
G1 X5.692 Y66.673 E32.80018
G1 X7.078 Y65.863 E32.87479
G1 E31.37479 F1800.00000
G92 E0
G1 Z0.500 F6000.000
G1 X77.451 Y98.306 F6000.000
G1 Z0.300 F6000.000
G1 E1.50000 F1800.00000
G1 F1440
G1 X77.334 Y97.668 E1.53015
G1 X77.295 Y97.046 E1.55916
G1 X77.295 Y82.658 E2.22818
G1 X77.322 Y81.811 E2.26757
G1 X77.407 Y80.944 E2.30807
G1 X77.548 Y80.082 E2.34868
G1 X77.940 Y78.405 E2.42878
G1 X78.095 Y77.560 E2.46871
G1 X78.206 Y76.710 E2.50855
G1 X78.272 Y75.856 E2.54838
G1 X78.295 Y75.000 E2.58821
G1 X78.272 Y74.144 E2.62804
G1 X78.206 Y73.290 E2.66788
G1 X78.095 Y72.440 E2.70771
G1 X77.940 Y71.595 E2.74764
G1 X77.548 Y69.918 E2.82775
G1 X77.407 Y69.056 E2.86836
G1 X77.322 Y68.189 E2.90885
G1 X77.295 Y67.342 E2.94825
G1 X77.295 Y52.956 E3.61719
G1 X77.332 Y52.342 E3.64578
G1 X77.451 Y51.694 E3.67643
G1 X77.644 Y51.075 E3.70657
G1 X77.917 Y50.465 E3.73764
G1 X78.258 Y49.900 E3.76836
G1 X78.665 Y49.381 E3.79900
G1 X79.131 Y48.915 E3.82965
G1 X79.650 Y48.508 E3.86029
G1 X80.205 Y48.173 E3.89044
G1 X80.813 Y47.897 E3.92150
G1 X81.444 Y47.701 E3.95222
G1 X82.092 Y47.582 E3.98287
G1 X82.739 Y47.543 E4.01301
G1 X83.406 Y47.582 E4.04408
G1 X84.056 Y47.701 E4.07480
G1 X84.685 Y47.897 E4.10544
G1 X85.286 Y48.167 E4.13608
G1 X85.850 Y48.508 E4.16673
G1 X86.369 Y48.915 E4.19737
G1 X86.835 Y49.381 E4.22802
G1 X87.242 Y49.900 E4.25867
G1 X87.583 Y50.464 E4.28931
G1 X87.853 Y51.065 E4.31995
G1 X88.049 Y51.694 E4.35060
G1 X88.168 Y52.342 E4.38124
G1 X88.205 Y52.956 E4.40984
G1 X88.216 Y67.538 E5.08787
G1 X88.243 Y67.745 E5.09756
G1 X88.592 Y69.230 E5.16852
G1 X88.834 Y70.497 E5.22847
G1 X89.015 Y71.776 E5.28856
G1 X89.137 Y73.063 E5.34865
G1 X89.198 Y74.354 E5.40875
G1 X89.198 Y75.646 E5.46884
G1 X89.137 Y76.937 E5.52894
G1 X89.015 Y78.224 E5.58903
G1 X88.834 Y79.503 E5.64912
G1 X88.592 Y80.770 E5.70907
G1 X88.243 Y82.255 E5.78003
G1 X88.216 Y82.462 E5.78972
G1 X88.205 Y97.044 E6.46775
G1 X88.168 Y97.658 E6.49635
G1 X88.049 Y98.306 E6.52699
G1 X87.853 Y98.935 E6.55764
G1 X87.583 Y99.536 E6.58828
G1 X87.247 Y100.091 E6.61843
G1 X86.836 Y100.618 E6.64949
G1 X86.369 Y101.085 E6.68021
G1 X85.850 Y101.492 E6.71086
G1 X85.286 Y101.833 E6.74150
G1 X84.685 Y102.103 E6.77214
G1 X84.056 Y102.299 E6.80279
G1 X83.408 Y102.418 E6.83343
G1 X82.750 Y102.458 E6.86408
G1 X82.092 Y102.418 E6.89472
G1 X81.444 Y102.299 E6.92537
G1 X80.815 Y102.103 E6.95601
G1 X80.223 Y101.837 E6.98616
G1 X79.651 Y101.493 E7.01722
G1 X79.131 Y101.085 E7.04794
G1 X78.665 Y100.619 E7.07859
G1 X78.258 Y100.100 E7.10923
G1 X77.917 Y99.536 E7.13988
G1 X77.647 Y98.935 E7.17052
G1 X77.469 Y98.363 E7.19838
G1 X77.858 Y98.206 F6000.000
G1 F1440
G1 X77.751 Y97.617 E7.22619
G1 X77.714 Y97.032 E7.25344
G1 X77.714 Y82.664 E7.92152
G1 X77.741 Y81.838 E7.95998
G1 X77.822 Y80.998 E7.99921
G1 X77.959 Y80.164 E8.03852
G1 X78.351 Y78.490 E8.11844
G1 X78.509 Y77.625 E8.15935
G1 X78.623 Y76.754 E8.20019
G1 X78.691 Y75.878 E8.24103
G1 X78.714 Y75.000 E8.28188
G1 X78.691 Y74.122 E8.32272
G1 X78.623 Y73.246 E8.36356
G1 X78.509 Y72.375 E8.40440
G1 X78.351 Y71.510 E8.44531
G1 X77.959 Y69.836 E8.52523
G1 X77.822 Y69.002 E8.56454
G1 X77.741 Y68.162 E8.60377
G1 X77.714 Y67.336 E8.64223
G1 X77.714 Y52.969 E9.31026
G1 X77.749 Y52.393 E9.33709
G1 X77.858 Y51.794 E9.36538
G1 X78.036 Y51.223 E9.39319
G1 X78.288 Y50.660 E9.42190
G1 X78.604 Y50.138 E9.45024
G1 X78.979 Y49.659 E9.47853
G1 X79.409 Y49.229 E9.50682
G1 X79.888 Y48.854 E9.53510
G1 X80.400 Y48.544 E9.56292
G1 X80.962 Y48.290 E9.59162
G1 X81.544 Y48.108 E9.61996
G1 X82.143 Y47.999 E9.64826
G1 X82.740 Y47.963 E9.67607
G1 X83.356 Y47.999 E9.70478
G1 X83.956 Y48.108 E9.73312
G1 X84.537 Y48.289 E9.76141
G1 X85.091 Y48.539 E9.78969
G1 X85.612 Y48.854 E9.81798
G1 X86.091 Y49.229 E9.84627
G1 X86.521 Y49.659 E9.87456
G1 X86.896 Y50.138 E9.90285
G1 X87.211 Y50.659 E9.93113
G1 X87.461 Y51.213 E9.95942
G1 X87.642 Y51.794 E9.98771
G1 X87.751 Y52.393 E10.01600
G1 X87.786 Y52.969 E10.04283
G1 X87.798 Y67.574 E10.72196
G1 X87.830 Y67.820 E10.73348
G1 X88.182 Y69.317 E10.80501
G1 X88.420 Y70.565 E10.86408
G1 X88.599 Y71.825 E10.92326
G1 X88.719 Y73.092 E10.98243
G1 X88.779 Y74.364 E11.04161
G1 X88.779 Y75.636 E11.10079
G1 X88.719 Y76.908 E11.15996
G1 X88.599 Y78.175 E11.21914
G1 X88.420 Y79.435 E11.27832
G1 X88.182 Y80.683 E11.33739
G1 X87.830 Y82.180 E11.40892
G1 X87.798 Y82.426 E11.42044
G1 X87.786 Y97.031 E12.09957
G1 X87.751 Y97.607 E12.12640
G1 X87.642 Y98.206 E12.15469
G1 X87.461 Y98.787 E12.18298
G1 X87.211 Y99.341 E12.21126
G1 X86.902 Y99.853 E12.23907
G1 X86.522 Y100.340 E12.26778
G1 X86.091 Y100.771 E12.29612
G1 X85.612 Y101.146 E12.32441
G1 X85.091 Y101.461 E12.35270
G1 X84.537 Y101.711 E12.38099
G1 X83.956 Y101.892 E12.40928
G1 X83.357 Y102.001 E12.43756
G1 X82.750 Y102.038 E12.46585
G1 X82.143 Y102.001 E12.49414
G1 X81.544 Y101.892 E12.52243
G1 X80.964 Y101.711 E12.55072
G1 X80.418 Y101.465 E12.57853
G1 X79.889 Y101.147 E12.60724
G1 X79.409 Y100.771 E12.63558
G1 X78.979 Y100.341 E12.66387
G1 X78.604 Y99.862 E12.69216
G1 X78.289 Y99.341 E12.72044
G1 X78.039 Y98.786 E12.74873
G1 X77.876 Y98.263 E12.77423
G1 X78.266 Y98.105 F6000.000
G1 F1440
G1 X78.167 Y97.566 E12.79971
G1 X78.133 Y97.019 E12.82519
G1 X78.133 Y82.671 E13.49235
G1 X78.159 Y81.865 E13.52986
G1 X78.238 Y81.052 E13.56783
G1 X78.370 Y80.245 E13.60585
G1 X78.761 Y78.576 E13.68558
G1 X78.923 Y77.690 E13.72747
G1 X79.039 Y76.797 E13.76932
G1 X79.109 Y75.900 E13.81117
G1 X79.133 Y75.000 E13.85302
G1 X79.109 Y74.100 E13.89487
G1 X79.039 Y73.203 E13.93672
G1 X78.923 Y72.310 E13.97857
G1 X78.761 Y71.424 E14.02046
G1 X78.370 Y69.755 E14.10019
G1 X78.238 Y68.948 E14.13821
G1 X78.159 Y68.135 E14.17618
G1 X78.133 Y67.329 E14.21368
G1 X78.133 Y52.981 E14.88081
G1 X78.165 Y52.443 E14.90588
G1 X78.266 Y51.895 E14.93181
G1 X78.429 Y51.372 E14.95729
G1 X78.660 Y50.854 E14.98364
G1 X78.949 Y50.376 E15.00960
G1 X79.293 Y49.937 E15.03553
G1 X79.687 Y49.543 E15.06147
G1 X80.126 Y49.199 E15.08740
G1 X80.595 Y48.916 E15.11288
G1 X81.112 Y48.682 E15.13923
G1 X81.645 Y48.516 E15.16519
G1 X82.193 Y48.415 E15.19112
G1 X82.740 Y48.382 E15.21660
G1 X83.306 Y48.415 E15.24295
G1 X83.855 Y48.516 E15.26891
G1 X84.388 Y48.682 E15.29485
G1 X84.896 Y48.911 E15.32078
G1 X85.374 Y49.199 E15.34671
G1 X85.813 Y49.543 E15.37264
G1 X86.207 Y49.937 E15.39858
G1 X86.551 Y50.376 E15.42451
G1 X86.839 Y50.854 E15.45044
G1 X87.068 Y51.362 E15.47637
G1 X87.234 Y51.895 E15.50230
G1 X87.335 Y52.443 E15.52823
G1 X87.367 Y52.981 E15.55330
G1 X87.367 Y67.306 E16.21934
G1 X87.380 Y67.610 E16.23353
G1 X87.417 Y67.895 E16.24688
G1 X87.773 Y69.405 E16.31899
G1 X88.007 Y70.634 E16.37719
G1 X88.183 Y71.875 E16.43544
G1 X88.301 Y73.122 E16.49370
G1 X88.360 Y74.374 E16.55196
G1 X88.360 Y75.626 E16.61022
G1 X88.301 Y76.878 E16.66848
G1 X88.183 Y78.125 E16.72674
G1 X88.007 Y79.366 E16.78500
G1 X87.773 Y80.595 E16.84320
G1 X87.417 Y82.105 E16.91530
G1 X87.380 Y82.390 E16.92865
G1 X87.367 Y82.694 E16.94284
G1 X87.367 Y97.019 E17.60889
G1 X87.335 Y97.557 E17.63395
G1 X87.234 Y98.105 E17.65988
G1 X87.068 Y98.638 E17.68582
G1 X86.839 Y99.146 E17.71175
G1 X86.556 Y99.615 E17.73722
G1 X86.207 Y100.062 E17.76357
G1 X85.813 Y100.457 E17.78954
G1 X85.374 Y100.801 E17.81547
G1 X84.896 Y101.089 E17.84140
G1 X84.388 Y101.318 E17.86733
G1 X83.855 Y101.484 E17.89327
G1 X83.307 Y101.585 E17.91920
G1 X82.750 Y101.618 E17.94513
G1 X82.193 Y101.585 E17.97106
G1 X81.645 Y101.484 E17.99700
G1 X81.112 Y101.318 E18.02293
G1 X80.613 Y101.093 E18.04841
G1 X80.127 Y100.801 E18.07476
G1 X79.687 Y100.457 E18.10072
G1 X79.293 Y100.063 E18.12665
G1 X78.949 Y99.624 E18.15258
G1 X78.661 Y99.146 E18.17852
G1 X78.432 Y98.638 E18.20445
G1 X78.284 Y98.163 E18.22759
G1 X78.652 Y98.010 F6000.000
G1 F1440
G1 X78.562 Y97.518 E18.24845
G1 X78.530 Y97.007 E18.26980
G1 X78.530 Y82.678 E18.86727
G1 X78.555 Y81.891 E18.90010
G1 X78.632 Y81.104 E18.93308
G1 X78.760 Y80.323 E18.96607
G1 X79.150 Y78.657 E19.03740
G1 X79.316 Y77.751 E19.07580
G1 X79.435 Y76.838 E19.11419
G1 X79.506 Y75.920 E19.15257
G1 X79.530 Y75.000 E19.19096
G1 X79.506 Y74.080 E19.22934
G1 X79.435 Y73.162 E19.26773
G1 X79.316 Y72.249 E19.30612
G1 X79.150 Y71.343 E19.34452
G1 X78.760 Y69.677 E19.41585
G1 X78.632 Y68.896 E19.44884
G1 X78.555 Y68.109 E19.48182
G1 X78.530 Y67.322 E19.51464
G1 X78.530 Y52.993 E20.11211
G1 X78.560 Y52.491 E20.13308
G1 X78.652 Y51.990 E20.15433
G1 X78.801 Y51.512 E20.17519
G1 X79.013 Y51.039 E20.19682
G1 X79.277 Y50.603 E20.21808
G1 X79.591 Y50.201 E20.23933
G1 X79.951 Y49.841 E20.26058
G1 X80.353 Y49.527 E20.28183
G1 X80.781 Y49.268 E20.30269
G1 X81.253 Y49.054 E20.32431
G1 X81.740 Y48.902 E20.34557
G1 X82.241 Y48.810 E20.36683
G1 X82.741 Y48.780 E20.38769
G1 X83.259 Y48.810 E20.40931
G1 X83.760 Y48.902 E20.43057
G1 X84.247 Y49.054 E20.45182
G1 X84.711 Y49.263 E20.47307
G1 X85.147 Y49.527 E20.49432
G1 X85.549 Y49.841 E20.51557
G1 X85.909 Y50.201 E20.53682
G1 X86.223 Y50.603 E20.55807
G1 X86.487 Y51.039 E20.57932
G1 X86.696 Y51.503 E20.60057
G1 X86.848 Y51.990 E20.62182
G1 X86.940 Y52.491 E20.64307
G1 X86.970 Y52.993 E20.66404
G1 X86.970 Y67.314 E21.26116
G1 X86.984 Y67.645 E21.27496
G1 X87.026 Y67.966 E21.28848
G1 X87.384 Y69.487 E21.35363
G1 X87.615 Y70.699 E21.40508
G1 X87.789 Y71.921 E21.45654
G1 X87.905 Y73.150 E21.50800
G1 X87.963 Y74.383 E21.55946
G1 X87.963 Y75.617 E21.61093
G1 X87.905 Y76.850 E21.66239
G1 X87.789 Y78.079 E21.71385
G1 X87.615 Y79.301 E21.76531
G1 X87.384 Y80.513 E21.81676
G1 X87.026 Y82.034 E21.88191
G1 X86.984 Y82.355 E21.89543
G1 X86.970 Y82.686 E21.90923
G1 X86.970 Y97.007 E22.50635
G1 X86.940 Y97.509 E22.52732
G1 X86.848 Y98.010 E22.54857
G1 X86.696 Y98.497 E22.56982
G1 X86.487 Y98.961 E22.59107
G1 X86.228 Y99.389 E22.61193
G1 X85.909 Y99.798 E22.63355
G1 X85.549 Y100.159 E22.65482
G1 X85.147 Y100.473 E22.67607
G1 X84.711 Y100.737 E22.69732
G1 X84.247 Y100.946 E22.71857
G1 X83.760 Y101.098 E22.73982
G1 X83.259 Y101.190 E22.76107
G1 X82.750 Y101.220 E22.78232
G1 X82.241 Y101.190 E22.80357
G1 X81.740 Y101.098 E22.82482
G1 X81.253 Y100.946 E22.84607
G1 X80.797 Y100.741 E22.86693
G1 X80.353 Y100.473 E22.88855
G1 X79.951 Y100.159 E22.90981
G1 X79.591 Y99.799 E22.93106
G1 X79.277 Y99.397 E22.95231
G1 X79.013 Y98.961 E22.97356
G1 X78.804 Y98.497 E22.99481
G1 X78.670 Y98.067 E23.01356
G1 X78.652 Y98.010 F6000.000
G1 E21.51356 F1800.00000
G92 E0
G1 Z0.500 F6000.000
G1 X75.624 Y78.126 F6000.000
G1 Z0.300 F6000.000
G1 E1.50000 F1800.00000
G1 F1440
G1 X10.474 Y78.126 E4.52934
G1 X10.474 Y71.874 E4.82006
G1 X75.624 Y71.874 E7.84940
G1 X75.624 Y53.033 E8.72546
G1 X75.645 Y52.428 E8.75362
G1 X75.706 Y51.858 E8.78025
G1 X75.806 Y51.295 E8.80688
G1 X75.946 Y50.739 E8.83350
G1 X76.125 Y50.195 E8.86013
G1 X76.341 Y49.665 E8.88675
G1 X76.594 Y49.152 E8.91338
G1 X76.883 Y48.657 E8.94000
G1 X77.206 Y48.184 E8.96663
G1 X77.452 Y47.874 E8.98504
G1 X79.890 Y47.874 E9.09839
G1 X79.411 Y48.163 E9.12438
G1 X78.853 Y48.601 E9.15738
G1 X78.351 Y49.103 E9.19038
G1 X77.913 Y49.661 E9.22339
G1 X77.545 Y50.270 E9.25648
G1 X77.251 Y50.927 E9.28991
G1 X77.044 Y51.593 E9.32239
G1 X76.916 Y52.291 E9.35538
G1 X76.876 Y52.943 E9.38575
G1 X76.876 Y67.349 E10.05559
G1 X76.904 Y68.216 E10.09594
G1 X76.991 Y69.110 E10.13769
G1 X77.136 Y70.000 E10.17959
G1 X77.530 Y71.681 E10.25989
G1 X77.681 Y72.505 E10.29884
G1 X77.789 Y73.333 E10.33766
G1 X77.854 Y74.165 E10.37649
G1 X77.875 Y75.000 E10.41531
G1 X77.854 Y75.835 E10.45414
G1 X77.789 Y76.667 E10.49296
G1 X77.681 Y77.495 E10.53178
G1 X77.530 Y78.319 E10.57073
G1 X77.136 Y80.000 E10.65103
G1 X76.991 Y80.890 E10.69294
G1 X76.904 Y81.784 E10.73469
G1 X76.876 Y82.651 E10.77503
G1 X76.876 Y97.059 E11.44497
G1 X76.918 Y97.719 E11.47576
G1 X77.044 Y98.407 E11.50824
G1 X77.255 Y99.084 E11.54123
G1 X77.546 Y99.731 E11.57424
G1 X77.913 Y100.339 E11.60724
G1 X78.351 Y100.897 E11.64024
G1 X78.853 Y101.399 E11.67324
G1 X79.413 Y101.838 E11.70634
G1 X79.892 Y102.126 E11.73231
G1 X77.452 Y102.126 E11.84575
G1 X77.206 Y101.816 E11.86416
G1 X76.883 Y101.343 E11.89079
G1 X76.594 Y100.848 E11.91741
G1 X76.346 Y100.346 E11.94348
G1 X76.124 Y99.804 E11.97072
G1 X75.946 Y99.261 E11.99729
G1 X75.806 Y98.705 E12.02391
G1 X75.706 Y98.142 E12.05054
G1 X75.645 Y97.572 E12.07717
G1 X75.624 Y96.967 E12.10533
G1 X75.624 Y78.186 E12.97860
G1 E11.47860 F1800.00000
G92 E0
G1 Z0.500 F6000.000
G1 X91.876 Y80.126 F6000.000
G1 Z0.300 F6000.000
G1 E1.50000 F1800.00000
G1 F1440
G1 X91.876 Y96.967 E2.28307
G1 X91.855 Y97.572 E2.31123
G1 X91.794 Y98.142 E2.33785
G1 X91.694 Y98.705 E2.36448
G1 X91.554 Y99.261 E2.39111
G1 X91.376 Y99.805 E2.41773
G1 X91.159 Y100.335 E2.44435
G1 X90.906 Y100.848 E2.47098
G1 X90.617 Y101.343 E2.49760
G1 X90.294 Y101.816 E2.52423
G1 X90.048 Y102.126 E2.54264
G1 X85.610 Y102.126 E2.74899
G1 X86.089 Y101.837 E2.77499
G1 X86.647 Y101.399 E2.80799
G1 X87.151 Y100.896 E2.84109
G1 X87.593 Y100.329 E2.87451
G1 X87.954 Y99.731 E2.90699
G1 X88.245 Y99.084 E2.93998
G1 X88.457 Y98.407 E2.97299
G1 X88.584 Y97.708 E3.00599
G1 X88.624 Y97.057 E3.03635
G1 X88.634 Y82.498 E3.71330
G1 X88.655 Y82.331 E3.72115
G1 X89.002 Y80.857 E3.79154
G1 X89.247 Y79.572 E3.85236
G1 X89.432 Y78.273 E3.91337
G1 X89.555 Y76.967 E3.97438
G1 X89.617 Y75.656 E4.03539
G1 X89.617 Y74.344 E4.09640
G1 X89.555 Y73.033 E4.15741
G1 X89.432 Y71.727 E4.21842
G1 X89.247 Y70.428 E4.27943
G1 X89.002 Y69.143 E4.34026
G1 X88.655 Y67.669 E4.41064
G1 X88.634 Y67.502 E4.41850
G1 X88.624 Y52.943 E5.09544
G1 X88.584 Y52.292 E5.12580
G1 X88.457 Y51.593 E5.15881
G1 X88.245 Y50.916 E5.19181
G1 X87.954 Y50.269 E5.22481
G1 X87.587 Y49.661 E5.25781
G1 X87.149 Y49.103 E5.29081
G1 X86.647 Y48.601 E5.32381
G1 X86.089 Y48.163 E5.35681
G1 X85.610 Y47.874 E5.38280
G1 X90.048 Y47.874 E5.58912
G1 X90.295 Y48.185 E5.60761
G1 X90.617 Y48.657 E5.63418
G1 X90.906 Y49.152 E5.66080
G1 X91.159 Y49.665 E5.68743
